storage/app/icons/phosphoricons/duotone/file-minus-duotone.svg

<svg xmlns="http://www.w3.org/2000/svg" fill="currentColor" viewBox="0 0 256 256"><path d="M208 88h-56V32Z" opacity=".2"/><path d="m213.66 82.34-56-56A8 8 0 0 0 152 24H56a16 16 0 0 0-16 16v176a16 16 0 0 0 16 16h144a16 16 0 0 0 16-16V88a8 8 0 0 0-2.34-5.66M160 51.31 188.69 80H160ZM200 216H56V40h88v48a8 8 0 0 0 8 8h48zm-40-64a8 8 0 0 1-8 8h-48a8 8 0 0 1 0-16h48a8 8 0 0 1 8 8"/></svg>

<svg xmlns="http://www.w3.org/2000/svg" viewBox="0 0 256 256" fill="currentColor"><path d="M208,88H152V32Z" opacity="0.2"/><path d="M213.66,82.34l-56-56A8,8,0,0,0,152,24H56A16,16,0,0,0,40,40V216a16,16,0,0,0,16,16H200a16,16,0,0,0,16-16V88A8,8,0,0,0,213.66,82.34ZM160,51.31,188.69,80H160ZM200,216H56V40h88V88a8,8,0,0,0,8,8h48V216Zm-40-64a8,8,0,0,1-8,8H104a8,8,0,0,1,0-16h48A8,8,0,0,1,160,152Z"/></svg>
